public/icons/tokens/eurs.svg

<svg width="256" height="256" viewBox="0 0 256 256" fill="none" xmlns="http://www.w3.org/2000/svg">
<circle cx="128" cy="128" r="128" fill="white"/>
<path fill-rule="evenodd" clip-rule="evenodd" d="M216.829 220.16C240.978 196.878 256 164.193 256 128C256 85.2284 235.021 47.3567 202.793 24.113C158.415 29.1825 121.545 49.8132 108.8 79.3551H227.84L214.4 110.08H102.4C102.4 110.08 101.699 121.856 101.76 127.36C101.849 135.393 102.4 144.64 102.4 144.64H199.68L186.88 174.343H115.84C129.907 200.935 169.527 220.125 216.829 220.16ZM179.475 245.229C163.723 252.155 146.311 256 128 256C57.3076 256 0 198.692 0 128C0 57.3076 57.3076 0 128 0C139.727 0 151.085 1.577 161.875 4.53049C120.432 12.115 86.3538 40.9286 71.1956 79.3551H44.8L31.36 110.08H65.28V124.16C65.28 126.512 65.28 127.279 65.2964 128.045C65.3286 129.554 65.4243 131.061 65.7082 144.64H43.52L31.36 174.343H73.4682C91.0903 214.071 122.614 237.583 179.475 245.229Z" fill="url(#paint0_linear_1614_1888)"/>
<defs>
<linearGradient id="paint0_linear_1614_1888" x1="30.08" y1="203.52" x2="224" y2="52.48" gradientUnits="userSpaceOnUse">
<stop offset="0.332699" stop-color="#15BCFF"/>
<stop offset="0.663965" stop-color="#406BEE"/>
<stop offset="0.924508" stop-color="#AE3EEB"/>
</linearGradient>
</defs>
</svg>

<svg width="256" height="256" viewBox="0 0 256 256" fill="none" xmlns="http://www.w3.org/2000/svg"><circle cx="128" cy="128" r="128" fill="#fff"/><path fill-rule="evenodd" clip-rule="evenodd" d="M216.829 220.16C240.978 196.878 256 164.193 256 128c0-42.772-20.979-80.643-53.207-103.887-44.378 5.07-81.248 25.7-93.993 55.242h119.04L214.4 110.08h-112s-.701 11.776-.64 17.28c.089 8.033.64 17.28.64 17.28h97.28l-12.8 29.703h-71.04c14.067 26.592 53.687 45.782 100.989 45.817Zm-37.354 25.069C163.723 252.155 146.311 256 128 256 57.308 256 0 198.692 0 128 0 57.308 57.308 0 128 0c11.727 0 23.085 1.577 33.875 4.53-41.443 7.585-75.521 36.399-90.68 74.825H44.8L31.36 110.08h33.92v14.08c0 2.352 0 3.119.016 3.885.033 1.509.128 3.016.412 16.595H43.52l-12.16 29.703h42.108c17.622 39.728 49.146 63.24 106.007 70.886Z" fill="url(#a)"/><defs><linearGradient id="a" x1="30.08" y1="203.52" x2="224" y2="52.48" gradientUnits="userSpaceOnUse"><stop offset=".333" stop-color="#15BCFF"/><stop offset=".664" stop-color="#406BEE"/><stop offset=".925" stop-color="#AE3EEB"/></linearGradient></defs></svg>
